raw/symbols/band.svg

<svg width="42" height="42" viewBox="0 0 42 42" fill="none" xmlns="http://www.w3.org/2000/svg">
<rect width="42" height="42" rx="21" fill="#4520E6"/>
<path fill-rule="evenodd" clip-rule="evenodd" d="M26.4862 10.8235L29.4322 7.87748L31.7776 7.875L30.6137 9.05899L27.9076 11.7651C28.8584 12.6686 29.6052 14.0751 29.6052 15.9873C29.6052 18.3421 28.4878 19.9506 27.0353 20.8968C27.4444 21.0938 27.8427 21.3376 28.2088 21.6434C29.3084 22.5619 30.0229 23.9572 30.0229 26.0128C30.0229 28.0593 29.3155 29.4484 28.3296 30.316C27.3723 31.1584 26.2271 31.4433 25.4279 31.4433H15.3308L12.6514 34.1226L10.2227 34.125L11.4699 32.9411L24.1806 20.2304L24.4286 20.1808C26.234 19.8198 27.9343 18.4967 27.9343 15.9873C27.9343 14.5268 27.368 13.5428 26.7255 12.9472L14.1493 25.5234V10.5569H25.4742L25.5202 10.562C25.8241 10.5958 26.1524 10.6829 26.4862 10.8235ZM25.0819 12.2278H15.8202V21.4895L25.0819 12.2278ZM24.861 21.9131L17.0017 29.7723H25.4279C25.8819 29.7723 26.6165 29.5977 27.2257 29.0616C27.8063 28.5507 28.352 27.6423 28.352 26.0128C28.352 24.3924 27.8134 23.4902 27.1376 22.9258C26.5203 22.4101 25.7161 22.1146 24.861 21.9131Z" fill="#F3F3F3"/>
</svg>

<svg xmlns="http://www.w3.org/2000/svg" width="42" height="42" fill="none"><rect width="42" height="42" fill="#4520E6" rx="21"/><path fill="#F3F3F3" fill-rule="evenodd" d="m26.486 10.823 2.946-2.946 2.346-.002-1.164 1.184-2.706 2.706c.95.904 1.697 2.31 1.697 4.222 0 2.355-1.117 3.964-2.57 4.91.41.197.808.44 1.174.746 1.1.919 1.814 2.314 1.814 4.37 0 2.046-.707 3.435-1.693 4.303-.958.842-2.103 1.127-2.902 1.127H15.33l-2.68 2.68-2.428.002 1.247-1.184 12.71-12.71.249-.05c1.805-.361 3.505-1.684 3.505-4.194 0-1.46-.566-2.444-1.209-3.04L14.15 25.523V10.557h11.325l.046.005c.304.034.632.12.966.261Zm-1.404 1.405H15.82v9.261l9.262-9.261Zm-.221 9.685-7.86 7.86h8.427c.454 0 1.188-.175 1.798-.711.58-.511 1.126-1.42 1.126-3.05 0-1.62-.539-2.522-1.214-3.086-.618-.516-1.422-.811-2.277-1.013Z" clip-rule="evenodd"/></svg>
